X:1
T:Title
%%score 1 2 3
L:1/8
M:3/2
K:C
V:1 treble nm="Part_1"
V:2 treble-8 nm="Part_2"
V:3 treble-8 nm="Part_3"
V:1
 G8 A4 | _B4 G4 z4 | d6 c2 _B4 | A6 G2 _B4- | B2 G2 A2 c2 _BA G2 | G6 A2 ^F2 E2 | G12 :| G6 F2 E4 | %8
 D8 E4 | F2 G2 A6 G2 | G6 F2 G2 E2 | G2 z2 G2 A2 _B2 G2- | GF E2 D2 G2 ^F3 E | G12 || %14
 D4 _E2 F2 G2 FE | D2 _B,2 A,2 D2 C3 B, | D4 z2 F2 G2 A2 | _B4 A6 G2 | G4 F4 G2 E2 | G12 || %20
 G4 G4 _E4 | F4 _E2 F2 G3 F | D2 _E3 D D2 C2 _B,2 | D4 z2 G2 F2 _EF | G4 _A2 c2 _B2 AG | %25
 G6 _A2 F2 _E2 | G12 || G8 A4 | B2 A2 c2 B2 G4 | z4 d6 c2 | B4 G2 A2 c2 B2 | G6 A2 ^F3 E | %32
 G4 A6 G2 | E2 G4 F2 D2 F2 | E2 D4 E2 C2 B,2 | D4 z4 E4 | F2 G2 A4 F2 _B2 | A2 G4 G2 ^F2 E2 | %38
 G12 |] %39
V:2
[K:F] d4 e4 f4 | d2 g2 e2 d2 B2 c2 | B4 G2 c2 G4 | z4 e4 d2 g2- | g2 d2 e2 g2 f2 d2- | %5
 d2 G2 d2 e2 d3 c | d12 :| d4 B4 c4 | G4 =B6 G2 | D4 F2 G2 A2 F2 | G4 D8 | d2 B4 A2 d2 G2 | %12
 z2 A2 G4 D4 | d12 || G2 B4 A2 B4 | A2 B2 c2 F2 G3 F | A4 d4 z2 c2 | (3_B2 A2 B2 c2 A4 F2 | G4 D8 | %19
 d12 || d4 d4 B4 | c4 B2 c2 d3 c | A2 B3 A A2 G2 F2 | A4 z2 d2 c2 Bc | d4 _e2 g2 f2 ed | %25
 d6 _e2 c2 B2 | d12 || d4 e4 f4 | d2 c2 e3 f e4 | z4 f4 c4 | d2 e4 c4 =B2 | G2 A2 G4 D4 | d8 D4 | %33
 A2 z2 E2 D2 G2 c2 | B4 A4 G4 | z2 A2 d4 c3 A | D4 z2 A2 D2 G2 | A2 z2 G2 G2 D4 | d12 |] %39
V:3
[K:F] G8 F4 | G4 c2 B2 d2 e2 | f2 d4 e2 d4 | c8 G4- | G4 c4 d2 B2 | G2 B4 c2 A4 | G12 :| G8 A4 | %8
 =B4 G8 | d8 c4 | B4 A8 | G4 E2 F2 G2 B2- | B2 c2 B2 G2 A4 | G12 || G4 G4 _E4 | F2 G2 F2 D2 _E4 | %16
 D8 E2 F2 | G4 F4 c4 | B4 A8 | G12 || G4 B6 G2 | F4 G8 | D2 G4 F2 _E4 | D4 _B4 A4 | G4 c4 d2 c2 | %25
 B2 G2 B2 c2 A4 | G12 || G4 E2 G2 F3 E | G2 A4 G2 c4- | c4 _B4 A4 | G2 E4 F4 G2 | =B2 c2 B2 G2 A4 | %32
 G4 z4 d4 | c6 d2 B2 A2 | G4 D2 F2 E4 | D4 F2 G2 A4 | d4 ^c4 d4 | c2 B2 G2 B2 A4 | G12 |] %39

